!!!!SEGMENT: pl-wumfc--n18053--005_noskowski-zygmunt--livia-quintilla-akt-pierwszy-przygrywka.krn
!!!cenid: 18xx:4221
!!!COM: Noskowski, Zygmunt
!!!COM-rismID: pe106604
!!!CDT: 1846/05/02-1909/07/23
!!!CNT: Polish
!!!GTL: Livia Quintilla
!!!OTL: Akt pierwszy - przygrywka
!!!PDT: 1898
!!!AGN:
!!!SMS-siglum: PL-Wumfc
!!!SMS-shelfmark: N18053
!!!SMS-shelfwork: 005 G
!!!SMS-variant:
!!!SMS-altvar:
!!!NIFC-rismSourceID: 1001161204
!!!NIFC-rismChildID: 1001161204
!!!NIFC-islandoraID: pl-wumfc:1491
!!!URL-pdf-islandora: https://repozytorium.nifc.pl/islandora/object/pl-wumfc:1491/datastream/PDF/view
!!!URL-scan: https://polish.musicsources.pl/pl/lokalizacje/galeria/druki-muzyczne/11843/19 @EN{Scan on Polish Music Sources Website} @PL{Skany w portalu Dziedzictwo Muzyki Polskiej w otwartym dostępie}
!!!ONB-nifc: Skany 0019-0020
!!!AIN: 2 piano 1 violn
!!!key: c
**kern	**kern	**dynam	**kern	**dynam
*part3	*part2	*part2	*part1	*part1
*staff3	*staff2	*	*staff1	*
*I"PIANO.	*I"PIANO.	*	*I"Tutti Violini.	*
*I'	*I'	*	*I'	*
*Ipiano	*Ipiano	*	*Ivioln	*
*ICklav	*ICklav	*	*ICstr	*
*clefF4	*clefG2	*	*clefG2	*
*k[b-e-a-]	*k[b-e-a-]	*	*k[b-e-a-]	*
*c:	*c:	*	*c:	*
*M4/4	*M4/4	*	*M4/4	*
*met(c)	*met(c)	*	*met(c)	*
=1	=1	=1	=1	=1
!	!LO:TX:a:B:t=Allegro.	!	!	!
!	!LO:TX:a:t=Tutti Violini.	!	!	!
1r	16c/LL	f	1ryy	.
.	16G/	.	.	.
.	16Bn/	.	.	.
.	16A-/JJ	.	.	.
.	16G/LL	.	.	.
.	16B/	.	.	.
.	16A-/	.	.	.
.	16G/JJ	.	.	.
.	16A-/LL	.	.	.
.	16B/	.	.	.
.	16c/	.	.	.
.	16d/JJ	.	.	.
.	16e-/LL	.	.	.
.	16B/	.	.	.
.	16d/	.	.	.
.	16c/JJ	.	.	.
=2	=2	=2	=2	=2
1r	16Bn/LL	.	1ryy	.
.	16d/	.	.	.
.	16c/	.	.	.
.	16B/JJ	.	.	.
.	16c/LL	.	.	.
.	16d/	.	.	.
.	16e-/	.	.	.
.	16f/JJ	.	.	.
.	16a-/LL	.	.	.
.	16e-/	.	.	.
.	16f#X/	.	.	.
.	16e-/JJ	.	.	.
.	16d/LL	.	.	.
.	16f#/	.	.	.
.	16e-/	.	.	.
.	16d/JJ	.	.	.
=3	=3	=3	=3	=3
1r	16e-/LL	.	1ryy	.
.	16f#X/	.	.	.
.	16g/	.	.	.
.	16bn/JJ	.	.	.
.	16cc/LL	.	.	.
.	16g/	.	.	.
.	16b/	.	.	.
.	16a-/JJ	.	.	.
.	16g/LL	.	.	.
.	16b/	.	.	.
.	16a-/	.	.	.
.	16g/JJ	.	.	.
.	16a-\LL	.	.	.
.	16b\	.	.	.
.	16cc\	.	.	.
.	16dd\JJ	.	.	.
!!LO:LB:g=original
=4	=4	=4	=4	=4
2r	2r	.	16ee-\LL	.
.	.	.	16bn\	.
.	.	.	16dd\	.
.	.	.	16cc\JJ	.
.	.	.	16ff\LL	.
.	.	.	16ee-\	.
.	.	.	16cc\	.
.	.	.	16b\JJ	.
4r	4r	.	16cc\LL	.
.	.	.	16dd\	.
.	.	.	16ee-\	.
.	.	.	16ff#X\JJ	.
8.r	8.r	.	16aa-\LL	.
.	.	.	16ff#\	.
.	.	.	16aa-\	.
16C 16CC/	16g 16e- 16c 16G/	mf	16gg\JJ	.
=5	=5	=5	=5	=5
4..F 4..FF/	4..a- 4..f 4..c 4..A-/	.	16ffn\LL	.
.	.	.	16cc\	.
.	.	.	16een\	.
.	.	.	16dd-X\JJ	.
.	.	.	16cc\LL	.
.	.	.	16ee\	.
.	.	.	16dd-\	.
16C 16CC/	16b- 16en 16c 16B-/	.	16cc\JJ	.
4..F 4..FF/	4..a- 4..f 4..c 4..A-/	.	16dd-\LL	.
.	.	.	16ee\	.
.	.	.	16ff\	.
.	.	.	16gg\JJ	.
.	.	.	16aa-\LL	.
.	.	.	16ee\	.
.	.	.	16aa-\	.
16En 16EEn/	16g 16c 16G/	.	16gg\JJ	.
=6	=6	=6	=6	=6
4..D 4..DD/	4..a- 4..f 4..c 4..A-/	.	16ff\LL	.
.	.	.	16aa-\	.
.	.	.	16gg\	.
.	.	.	16ff\JJ	.
.	.	.	16ccc\LL	.
.	.	.	16bb-\	.
.	.	.	16aa-\	.
16C 16CC/	16cc 16g 16en 16c/	.	16bb-\JJ	.
4AA- 4AAA-/	4cc 4f 4c/	.	16ccc\LL	.
.	.	.	16ddd-X\	.
.	.	.	16ccc\	.
.	.	.	16bb-\JJ	.
8.r	8.r	.	16aa-\LL	.
.	.	.	16bb-\	.
.	.	.	16aa-\	.
16BB-/	16e 16c 16G/	.	16gg\JJ	.
!!LO:LB:g=original
=7	=7	=7	=7	=7
4..AA-/	4..f 4..d-X 4..A-/	.	16ff\LL	.
.	.	.	16dd-X\	.
.	.	.	16cc\	.
.	.	.	16ff\JJ	.
.	.	.	16dd-\LL	.
.	.	.	16cc\	.
.	.	.	16bn\	.
16GG/	16en 16c 16B-/	.	16cc\JJ	.
4..FF/	4..f 4..c 4..A-/	.	16aa-\LL	.
.	.	.	16gg\	.
.	.	.	16ff\	.
.	.	.	16gg\JJ	.
.	.	.	16aa-\LL	.
.	.	.	16een\	.
.	.	.	16gg\	.
16Dn 16DDn/	16g 16f 16Bn 16G/	.	16ff\JJ	.
=8	=8	=8	=8	=8
2D 2DD/	2.g 2.f 2.Bn 2.G/	.	16gg\LL	.
.	.	.	16bn\	.
.	.	.	16ee-X\	.
.	.	.	16dd\JJ	.
.	.	.	16b\LL	.
.	.	.	16an\	.
.	.	.	16b\	.
.	.	.	16cc\JJ	.
4GG 4GGG/	.	.	16dd\LL	.
.	.	.	16ee-\	.
.	.	.	16dd\	.
.	.	.	16cc\JJ	.
4G 4GG/	4r	.	16b\LL	.
.	.	.	16cc\	.
.	.	.	16dd\	.
.	.	.	16ee-\JJ	.
=9	=9	=9	=9	=9
4A- 4AA-\	8.r	.	16ff\LL	.
.	.	.	16cc\	.
.	.	.	16een\	.
.	16f 16c/	<	16dd-X\JJ	.
4En 4EEn/	8.gL 8.c/	.	16cc\LL	.
.	.	.	16ee\	.
.	.	.	16dd-\	.
.	16a-Jk 16c/	.	16cc\JJ	.
4A- 4AA-\	8.gL 8.c/	.	16bn\LL	.
.	.	.	16cc\	.
.	.	.	16ee-X\	.
.	16fJk 16c/	.	16dd-\JJ	.
4E 4EE/	8.gL 8.c/	[	16cc\LL	.
.	.	.	16een\	.
.	.	.	16ff\	.
.	16ccJk 16g 16c/	.	16gg\JJ	.
!!LO:LB:g=original
=10	=10	=10	=10	=10
4F 4FF/	8cc 8a- 8c/	.	16aa-\LL	.
.	.	.	16bb-\	.
.	8r	.	16ccc\	.
.	.	.	16bb-\JJ	.
8cL 8C\	4r	.	16aa-\LL	.
.	.	.	16bb-\	.
8B-J 8BB-\	.	.	16aa-\	.
.	.	.	16gg\JJ	.
4A- 4AA-\	8.r	.	16ff\LL	.
.	.	.	16een\	.
.	.	.	16ff\	.
.	16ff 16cc 16f\	.	16aa-\JJ	.
4En 4EEn/	8.ggL 8.cc 8.g\	.	16ccc\LL	.
.	.	.	16bbn\	.
.	.	.	16ccc\	.
.	16aa-Jk 16cc 16a-\	.	16aa-\JJ	.
=11	=11	=11	=11	=11
4A- 4AA-\	8.ggL 8.cc 8.g\	.	16ccc\LL	.
.	.	.	16ddd-X\	.
.	.	.	16ccc\	.
.	16ffJk 16cc 16f\	.	16aa-\JJ	.
4En 4EEn/	8.ggL 8.cc 8.g\	.	16bb-\LL	.
.	.	.	16ccc\	.
.	.	.	16bb-\	.
.	16bb-Jk 16gg 16b-\	.	16ddd-\JJ	.
4F 4FF/	4aa- 4ff 4a-\	.	16ccc\LL	.
.	.	.	16bb-\	.
.	.	.	16ddd-\	.
.	.	.	16ccc\JJ	.
8D-XL 8DD-X/	8.r	.	16bb-\LL	.
.	.	.	16ccc\	.
8CJ 8CC/	.	.	16aa-\	.
.	16aa- 16ff 16cc\	.	16ff\JJ	.
=12	=12	=12	=12	=12
4BB- 4BBB-/	8.bb-L 8.ff 8.dd-X\	.	16dd-X\LL	.
.	.	.	16cc\	.
.	.	.	16b-\	.
.	16cccJk 16ff 16dd-\	.	16dd-\JJ	.
4C 4CC/	8.bb-L 8.ee- 8.cc\	.	16ee-\LL	.
.	.	.	16ff\	.
.	.	.	16gg\	.
.	16aa-Jk 16ee- 16cc\	.	16aa-\JJ	.
4D-X 4DD-X/	8.ggL 8.dd- 8.b-\	.	16bb-\LL	.
.	.	.	16ddd-X\	.
.	.	.	16ccc\	.
.	16aa-Jk 16dd- 16b-\	.	16bb-\JJ	.
4A- 4AA-\	8.ggL 8.cc 8.g\	.	16ccc\LL	.
.	.	.	16dddn\	.
.	.	.	16eeen\	.
.	16ffJk 16cc 16f\	.	16fff\JJ	.
!!LO:PB:g=original
=13	=13	=13	=13	=13
4G 4GG/	8ff 8bn 8f\	.	16ddd-X\LL	.
.	.	.	16fff\	.
.	8r	.	16eee-X\	.
.	.	.	16ddd-\JJ	.
8e-L 8E-^^\	4r	.	16ccc\LL	.
.	.	.	16ddd-\	.
8d-XJ 8D-X\	.	.	16eee-\	.
.	.	.	16fff\JJ	.
[2c [2C\	8.r	.	16eee-\LL	.
.	.	.	16dddn\	.
.	.	.	16ccc\	.
.	16ff 16b 16a-\	.	16ddd\JJ	.
.	8.ee-L 8.cc 8.g\	.	16eee-\LL	.
.	.	.	16fff\	.
.	.	.	16eee-\	.
.	16ffJk 16dd 16cc\	.	16ddd\JJ	.
=14	=14	=14	=14	=14
4c] 4C\]	4gg 4ee- 4cc\	.	16ccc\LL	.
.	.	.	16ddd\	.
.	.	.	16eee-\	.
.	.	.	16fff\JJ	.
8B-XL 8BB-X\	4r	.	16ggg\LL	.
.	.	.	16aaa-\	.
8A-J 8AA-\	.	.	16ggg\	.
.	.	.	16fff\JJ	.
2G 2GG/	8.r	.	16eee-\LL	.
.	.	.	16fff\	.
.	.	.	16ggg\	.
.	16bbn 16gg 16ff 16bn\	.	16fff\JJ	.
.	8.cccL 8.gg 8.ee- 8.cc\	.	16eee-\LL	.
.	.	.	16fff\	.
.	.	.	16eee-\	.
.	16dddJk 16bb 16gg 16dd\	.	16fff\JJ	.
=15	=15	=15	=15	=15
4G 4GG/	4ddd 4bbn 4gg 4dd\	.	16bbn\LL	.
.	.	.	16ccc\	.
.	.	.	16ddd\	.
.	.	.	16ccc\JJ	.
4D 4DD/	4r	.	16bb\LL	.
.	.	.	16aa-\	.
.	.	.	16gg\	.
.	.	.	16aa-\JJ	.
4G 4GG/	2r	.	16bb\LL	.
.	.	.	16ccc\	.
.	.	.	16ddd\	.
.	.	.	16ccc\JJ	.
4C#X 4CC#X/	.	.	16bb\LL	.
.	.	.	16ccc\	.
.	.	.	16ddd\	.
.	.	.	16eee-\JJ	.
!!LO:LB:g=original
=16	=16	=16	=16	=16
4D 4DD/	8r	.	16fff\LL	.
.	.	.	16eee-\	.
.	16r	.	16ddd\	.
.	16dd 16bn 16f/	.	16fff\JJ	.
8BnL 8BBn\	8.ee-L 8.b 8.f\	.	16eee-\LL	.
.	.	.	16ddd\	.
8A-J 8AA-\	.	.	16fff\	.
.	16ffJk 16b 16f\	<	16ddd\JJ	.
4G 4GG/	8.ee-L 8.b 8.f\	.	16eee-\LL	.
.	.	.	16ddd\	.
.	.	.	16ccc\	.
.	16ddJk 16b 16f\	.	16ddd\JJ	.
4D 4DD/	8.ffL 8.b 8.f\	.	16bbn\LL	.
.	.	.	16ddd\	.
.	.	.	16ccc\	.
.	16aa-Jk 16ff 16b\	.	16bb\JJ	.
=17	=17	=17	=17	=17
4G 4GG/	8aa- 8ff 8bn\	[	16aa-\LL	.
.	.	.	16bbn\	.
.	8r	.	16aa-\	.
.	.	.	16gg\JJ	.
4C#X 4CC#X/	4r	.	16ff\LL	.
.	.	.	16een\	.
.	.	.	16ff\	.
.	.	.	16aa-\JJ	.
4D 4DD/	8r	.	16bb\LL	.
.	.	.	16aa-\	.
.	16r	.	16ff\	.
.	16dd 16b 16f/	.	16aa-\JJ	.
8BBnL 8BBBn/	8.ee-L 8.b 8.f\	.	16gg\LL	.
.	.	.	16aa-\	.
8AA-J 8AAA-/	.	.	16gg\	.
.	16ffJk 16b 16f\	.	16ff\JJ	.
=18	=18	=18	=18	=18
4GG 4GGG/	8.ee-L 8.bn 8.f\	.	16gg\LL	.
.	.	.	16ee-X\	.
.	.	.	16gg\	.
.	16ddJk 16b 16f\	.	16ff\JJ	.
4F 4FF/	8.ddL 8.b 8.g\	.	16dd\LL	.
.	.	.	16ee-\	.
.	.	.	16ff\	.
.	16ggJk 16b 16g\	.	16dd\JJ	.
4E- 4EE-/	8gg 8cc 8g\	.	16cc\LL	.
.	.	.	16g\	.
.	8r	.	16bn\	.
.	.	.	16cc\JJ	.
4BBn 4BBBn/	8r	.	16dd\LL	.
.	.	.	16ee-\	.
.	16r	.	16ff\	.
.	16gg 16dd 16g\	.	16dd\JJ	.
!!LO:LB:g=original
=19	=19	=19	=19	=19
4E- 4EE-/	8gg 8cc 8g\	.	16gg\LL	.
.	.	.	16ee-\	.
.	8r	.	16gg\	.
.	.	.	16ff\JJ	.
4BBn 4BBBn/	8r	.	16dd\LL	.
.	.	.	16ee-\	.
.	16r	.	16ff\	.
.	16ff 16dd 16g\	.	16gg\JJ	.
4C 4CC/	8ee- 8cc 8g\	.	16aa-\LL	.
.	.	.	16gg\	.
.	8r	.	16ff\	.
.	.	.	16ee-\JJ	.
8GL 8GG/	8r	.	16dd\LL	.
.	.	.	16ee-\	.
8FJ 8FF/	16r	.	16ff\	.
.	16dd 16bn 16g\	.	16gg\JJ	.
=20	=20	=20	=20	=20
4E- 4EE-/	8.ccL 8.g/	.	16aa-\LL	.
.	.	.	16gg\	.
.	.	.	16bb-\	.
.	16ccJk 16g/	.	16aa-\JJ	.
4BBn 4BBBn/	8.ddL 8.g\	.	16gg\LL	.
.	.	.	16ff\	.
.	.	.	16dd\	.
.	16ee-Jk 16g\	.	16gg\JJ	.
4E- 4EE-/	8.ddL 8.g\	.	16aa-\LL	.
.	.	.	16gg\	.
.	.	.	16bb-\	.
.	16ccJk 16g\	.	16aa-\JJ	.
4BB 4BBB/	8.ddL 8.g\	.	16gg\LL	.
.	.	.	16bbn\	.
.	.	.	16ccc\	.
.	16ggJk 16dd 16g\	.	16ddd\JJ	.
=21	=21	=21	=21	=21
4C 4CC/	8gg 8ee- 8g\	<	16eee-\LL	.
.	.	.	16fff\	.
.	8r	.	16eee-\	.
.	.	.	16ddd\JJ	.
8AA-L 8AAA-/	4r	.	16ccc\LL	.
.	.	.	16ddd\	.
8GGJ 8GGG/	.	.	16ccc\	.
.	.	.	16bb-X\JJ	.
4FF 4FFF/	8r	[	16aa-\LL	.
.	.	.	16gg\	.
.	16r	.	16ff\	.
.	16aa- 16cc 16a-\	.	16ee-\JJ	.
4GG 4GGG/	8.ggL 8.bn 8.g\	.	16ff\LL	.
.	.	.	16ee-\	.
.	.	.	16ff\	.
.	16ffJk 16b 16f\	.	16dd\JJ	.
!!LO:LB:g=original
=22	=22	=22	=22	=22
4AA- 4AAA-/	8.ee-L 8.cc 8.e-/	f	16cc\LL	.
.	.	.	16b-\	.
.	.	.	16a-\	.
.	16ddJk 16g 16e-/	.	16b-\JJ	.
4E- 4EE-/	8.ccL 8.g 8.e-/	.	16cc\LL	.
.	.	.	16dd\	.
.	.	.	16ee-\	.
.	16b-XJk 16g 16e-/	.	16ff\JJ	.
4D 4DD/	8.bnL 8.g 8.f\	.	16gg\LL	.
.	.	.	16aa-\	.
.	.	.	16bb-\	.
.	16ffJk 16b 16f\	.	16aa-\JJ	.
4FF 4FFF/	8.ee-L 8.b 8.g\	.	16gg\LL	.
.	.	.	16bn\	.
.	.	.	16dd\	.
.	16ddJk 16b 16g\	.	16gg\JJ	.
=23	=23	=23	=23	=23
4FF#X 4FFF#X/	8.ccL 8.a- 8.e-/	.	16aa-\LL	.
.	.	.	16gg\	.
.	.	.	16bb-X\	.
.	16ddJk 16a- 16e-/	.	16aa-\JJ	.
4GG 4GGG/	8.ccL 8.g 8.d/	.	16gg\LL	.
.	.	.	16bbn\	.
.	.	.	16aa-\	.
.	16bnJk 16g 16d/	.	16gg\JJ	.
4AAn 4AAAn/	8.f#XL 8.d 8.c/	.	16ccc\LL	.
.	.	.	16bb\	.
.	.	.	16ddd\	.
.	16gJk 16d 16c/	.	16ccc\JJ	.
4E- 4EE-/	8.anL 8.d 8.c/	.	16aan\LL	.
.	.	.	16bb-X\	.
.	.	.	16ccc\	.
.	16gJk 16d 16c/	.	16ddd\JJ	.
=24	=24	=24	=24	=24
4D 4DD/	4f#X 4d 4c/	.	16eee-\LL	.
.	.	.	16ddd\	.
.	.	.	16fffn\	.
.	.	.	16eee-\JJ	.
4FF#X 4FFF#X/	8r	.	16ddd\LL	.
.	.	.	16eee-\	.
.	16r	.	16ddd\	.
.	16ee- 16cc 16d/	.	16aan\JJ	.
4GG 4GGG/	4dd 4b- 4d/	.	16bb-\LL	.
.	.	.	16aa\	.
.	.	.	16bb-\	.
.	.	.	16ddd\JJ	.
4AAn 4AAAn/	8r	.	16ccc\LL	.
.	.	.	16aa\	.
.	16r	.	16gg\	.
.	16dd 16f# 16c/	.	16ff#X\JJ	.
!!LO:PB:g=original
=25	=25	=25	=25	=25
4BBn 4BBBn/	8.ddL 8.g 8.d/	.	16gg\LL	.
.	.	.	16aa-X\	.
.	.	.	16gg\	.
.	16gJk 16d/	.	16ff\JJ	.
8CL 8CC/	8.anL 8.e-/	.	16ee-\LL	.
.	.	.	16ff\	.
8DJ 8DD/	.	.	16ee-\	.
.	16bnJk 16g 16f/	.	16dd\JJ	.
4F 4FF/	8.ddL 8.g 8.d/	.	16gg\LL	.
.	.	.	16bn\	.
.	.	.	16cc\	.
.	16bJk 16g 16d/	.	16dd\JJ	.
4E- 4EE-/	8.ccL 8.g 8.c/	.	16gg\LL	.
.	.	.	16ee-\	.
.	.	.	16dd\	.
.	16ggJk 16cc 16g/	.	16cc\JJ	.
=26	=26	=26	=26	=26
4D 4DD/	8.ffL 8.a- 8.f/	.	16aa-\LL	.
.	.	.	16gg\	.
.	.	.	16aa-\	.
.	16b-XJk 16a- 16f/	.	16bb-X\JJ	.
4E- 4EE-/	8.ddL 8.g 8.e-/	<	16gg\LL	.
.	.	.	16aa-\	.
.	.	.	16bb-\	.
.	16ccJk 16g 16e-/	.	16ccc\JJ	.
4F 4FF/	8.b-L 8.a- 8.d\	.	16ddd\LL	.
.	.	.	16bb-\	.
.	.	.	16ccc\	.
.	16aa-Jk 16dd 16b-\	.	16ddd\JJ	.
8GL 8GG/	8.ggL 8.ee- 8.bn\	.	16eee-\LL	.
.	.	.	16fff\	.
8A-J 8AA-/	.	.	16eee-\	.
.	16ffJk 16dd 16cc\	[[	16ddd\JJ	.
=27	=27	=27	=27	=27
4d 4D\	4gg 4dd 4bn\	.	16fff\LL	.
.	.	.	16eee-\	.
.	.	.	16ddd\	.
.	.	.	16ccc\JJ	.
4d-X 4D-X\	8r	.	16bbn\LL	.
.	.	.	16aa-\	.
.	16r	.	16gg\	.
.	16gg 16ff 16b 16g\	.	16ff\JJ	.
4c 4C\	4aa- 4ee- 4cc 4a-\	.	16ee-\LL	.
.	.	.	16dd\	.
.	.	.	16ee-\	.
.	.	.	16ff\JJ	.
8BnL 8BBn\	8r	.	16gg\LL	.
.	.	.	16aa-\	.
8cJ 8C\	16r	.	16gg\	.
.	16ff#X 16ee- 16a-\	.	16ee-\JJ	.
!!LO:LB:g=original
=28	=28	=28	=28	=28
4d 4D\	8gg 8bn 8g\	.	16gg\LL	.
.	.	.	16ff\	.
.	8r	.	16aa-\	.
.	.	.	16gg\JJ	.
4d-X 4D-X\	8r	.	16ff\LL	.
.	.	.	16een\	.
.	16r	.	16bb-\	.
.	16een 16b-X 16g-X\	.	16gg-X\JJ	.
4c 4C\	8.ffL 8.a- 8.f\	.	16ff\LL	.
.	.	.	16aa-\	.
.	.	.	16ggn\	.
.	16aa-Jk 16ff 16cc\	.	16ff\JJ	.
8BnL 8BBn\	8.ggL 8.ddn\	.	16dd\LL	.
.	.	.	16ee-X\	.
8dnJ 8Dn\	.	.	16ff\	.
.	16bbnJk 16gg 16dd\	.	16gg\JJ	.
=29	=29	=29	=29	=29
4f#X 4F#X\	8.ccc#XL 8.aan 8.cc#X\	.	16aan\LL	.
.	.	.	16ff#X\	.
.	.	.	16aa\	.
.	16dddJk 16aa 16dd\	.	16ddd\JJ	.
4g 4G\	8.eee-L 8.bbn 8.ee-\	.	16bbn\LL	.
.	.	.	16gg\	.
.	.	.	16bb\	.
.	16bbJk 16dd 16bn\	.	16ddd\JJ	.
4f# 4F#\	8.aa#XL 8.dd 8.a#X\	.	16dd\LL	.
.	.	.	16een\	.
.	.	.	16ff#\	.
.	16bbJk 16dd 16b\	.	16bb\JJ	.
8fnL 8Fn\	8.dddL 8.bb 8.gg 8.dd\	.	16gg\LL	.
.	.	.	16aa\	.
8enJ 8En\	.	.	16bb\	.
.	16ccc#Jk 16gg 16cc#\	.	16ccc\JJ	.
=30	=30	=30	=30	=30
4e-X 4E-X\	8.aa-XL 8.ff 8.cc\	.	16ffn\LL	.
.	.	.	16gg\	.
.	.	.	16ff\	.
.	16aanJk 16ff 16cc\	.	16aan\JJ	.
8dL 8D\	8.bb-L 8.ff 8.b-\	.	16ff\LL	.
.	.	.	16bb-X\	.
8d-XJ 8D-X\	.	.	16ff\	.
.	16bbnJk 16ff 16bn\	.	16gg\JJ	.
4c 4C\	8.ffL 8.dd-X 8.a-\	.	16ff\LL	.
.	.	.	16dd-X\	.
.	.	.	16ff\	.
.	16ff#XJk 16dd- 16a-\	.	16aa-X\JJ	.
4Bn 4BBn\	8.ggL 8.ddn 8.g\	.	16gg\LL	.
.	.	.	16aa-\	.
.	.	.	16gg\	.
.	16bJk 16g 16d\	.	16dd-\JJ	.
!!LO:LB:g=original
=31	=31	=31	=31	=31
4B-X 4BB-X\	8.ccL 8.g 8.en/	.	16cc\LL	.
.	.	.	16dd\	.
.	.	.	16een\	.
.	16cc#XJk 16g 16e-X/	.	16gg\JJ	.
4An 4AAn\	8.ddL 8.f#X 8.d/	.	16ff#X\LL	.
.	.	.	16gg\	.
.	.	.	16ff#\	.
.	16anJk 16f# 16d/	.	16dd\JJ	.
4A-X 4AA-X\	8.b-XL 8.fn 8.d/	.	16b-X\LL	.
.	.	.	16cc\	.
.	.	.	16dd\	.
.	16bnJk 16f 16d-X/	.	16ffn\JJ	.
8GL 8GG/	8.cc#L 8.e- 8.c/	.	16ee-X\LL	.
.	.	.	16ff\	.
8F#XJ 8FF#X/	.	.	16ee-\	.
.	16a-XJk 16d- 16c/	.	16cc\JJ	.
=32	=32	=32	=32	=32
4Fn 4FFn/	8.gL 8.d 8.Bn/	.	16g\LL	.
.	.	.	16an\	.
.	.	.	16bn\	.
.	16g#XJk 16d 16B-X/	.	16dd\JJ	.
8EnL 8EEn/	8.anL 8.c 8.An/	.	16cc\LL	.
.	.	.	16dd\	.
8E-XJ 8EE-X/	.	.	16cc\	.
.	16f#XJk 16c 16A-X/	.	16aa-X\JJ	.
4D 4DD/	8.gnL 8.Bn 8.Gn/	.	16gg\LL	.
.	.	.	16aa-\	.
.	.	.	16gg\	.
.	16a-XJk 16fn 16c/	.	16ff\JJ	.
4D-X 4DD-X/	8.b-XL 8.g 8.f 8.B-X/	.	16bb-X\LL	.
.	.	.	16aa-\	.
.	.	.	16gg\	.
.	16bnJk 16g 16f 16Bn/	.	16ff\JJ	.
=33	=33	=33	=33	=33
4C 4CC/	4cc 4g 4en 4c/	.	16een\LL	.
.	.	.	16ff\	.
.	.	.	16gg\	.
.	.	.	16ccc\JJ	.
8r	8r	.	16gg\LL	.
.	.	.	16ff\	.
*clefG2	*	*	*	*
16r	16r	.	16ee\	.
16b-X 16c/	16gg 16een 16cc\	p	16bb-\JJ	.
4..a- 4..c/	4..aa- 4..ee 4..cc\	.	16cc\LL	.
.	.	.	16bn\	.
.	.	.	16cc\	.
.	.	.	16dd\JJ	.
.	.	.	16ee\LL	.
.	.	.	16cc\	.
.	.	.	16ee\	.
16g 16c/	16bb- 16ee 16cc\	.	16gg\JJ	.
!!LO:LB:g=original
=34	=34	=34	=34	=34
4..a- 4..c/	4..aa- 4..een 4..cc\	.	16aa-\LL	.
.	.	.	16gg\	.
.	.	.	16een\	.
.	.	.	16cc\JJ	.
.	.	.	16ee\LL	.
.	.	.	16cc\	.
.	.	.	16ee\	.
16b- 16c/	16gg 16ee 16cc\	.	16gg\JJ	.
4..b- 4..c/	4..ccc 4..gg 4..ee 4..cc\	.	16ee\LL	.
.	.	.	16ff\	.
.	.	.	16gg\	.
.	.	.	16ee\JJ	.
.	.	.	16cc/LL	.
.	.	.	16b-/	.
.	.	.	16g/	.
16b- 16c/	16ddd-X 16gg 16ee 16dd-X\	.	16en/JJ	.
=35	=35	=35	=35	=35
4a- 4c/	4ccc 4aa- 4ff 4cc\	.	16f/LL	.
.	.	.	16g/	.
.	.	.	16a-/	.
.	.	.	16g/JJ	.
8r	8r	.	16f/LL	.
.	.	.	16e-X/	.
16r	16r	.	16d/	.
16f 16c/	16ff 16cc 16a-\	.	16c/JJ	.
4..f 4..c/	4..gg 4..cc 4..a-\	<	16B-/LL	.
.	.	.	16A-/	.
.	.	.	16G/	.
.	.	.	16A-/JJ	.
.	.	.	16B-/LL	.
.	.	.	16c/	.
.	.	.	16B-/	.
16f 16c/	16aa- 16cc 16a-\	[	16A-/JJ	.
=36	=36	=36	=36	=36
4..f 4..c/	4..gg 4..cc 4..a-\	.	16c/LL	.
.	.	.	16A-/	.
.	.	.	16B-/	.
.	.	.	16c/JJ	.
.	.	.	16f/LL	.
.	.	.	16c/	.
.	.	.	16B-/	.
16f 16c/	16ff 16cc 16a-\	.	16A-/JJ	.
4..f 4..c/	4..dd 4..bn 4..g\	>	16c/LL	.
.	.	.	16Bn/	.
.	.	.	16G/	.
.	.	.	16A-/JJ	.
.	.	.	16G/LL	.
.	.	.	16A-/	.
.	.	.	16G/	.
16r	16gg 16dd 16b 16g\	]	16A-/JJ	.
*clefF4	*	*	*	*
!!LO:PB:g=original
=37	=37	=37	=37	=37
2E- 2EE-^^/	4gg 4ee- 4cc 4g\	mf	16G/LL	.
.	.	.	16A-/	.
.	.	.	16G/	.
.	.	.	16Bn/JJ	.
.	4r	.	16c/LL	.
.	.	.	16d/	.
.	.	.	16e-/	.
.	.	.	16f#X/JJ	.
2BBn 2BBBn^^/	8r	.	16g/LL	.
.	.	.	16fn/	.
.	16r	.	16d/	.
.	16ee- 16g 16e-/	.	16e-/JJ	.
.	8.ddL 8.g 8.d/	.	16f/LL	.
.	.	.	16g/	.
.	.	.	16an/	.
.	16gJk 16d 16G/	.	16bn/JJ	.
=38	=38	=38	=38	=38
2E- 2EE-^^/	8.a-L 8.c 8.A-/	.	16cc\LL	.
.	.	.	16dd\	.
.	.	.	16cc\	.
.	16b-XJk 16c 16B-X/	.	16b-X\JJ	.
.	4g 4c 4G/	.	16cc/LL	.
.	.	.	16b-/	.
.	.	.	16a-X/	.
.	.	.	16g/JJ	.
2BBn 2BBBn^^/	8r	.	16f/LL	.
.	.	.	16g/	.
.	16r	.	16f/	.
.	16f 16d 16A-/	.	16d/JJ	.
.	8.gL 8.d 8.G/	.	16f/LL	.
.	.	.	16e-/	.
.	.	.	16d/	.
.	16dJk 16G/	.	16g/JJ	.
=39	=39	=39	=39	=39
2C 2CC/	8.e-L 8.G/	.	16e-/LL	.
.	.	.	16f/	.
.	.	.	16g/	.
.	16gJk 16e- 16c/	.	16cc/JJ	.
.	8.a-L 8.e- 8.c/	.	16ee-\LL	.
.	.	.	16dd\	.
.	.	.	16cc\	.
.	16b-Jk 16e- 16c/	.	16ee-\JJ	.
4G 4GG/	8.a-L 8.d 8.Bn/	.	16ff\LL	.
.	.	.	16gg\	.
.	.	.	16ff\	.
.	16gJk 16d 16B/	.	16gg\JJ	.
4F 4FF/	8.a-L 8.f 8.c/	.	16aa-\LL	.
.	.	.	16bb-\	.
.	.	.	16ccc\	.
.	16ccJk 16a- 16c/	.	16ddd\JJ	.
!!LO:LB:g=original
=40	=40	=40	=40	=40
2E- 2EE-/	4cc 4g 4c/	.	16ccc\LL	.
.	.	.	16ddd\	.
.	.	.	16eee-\	.
.	.	.	16fff\JJ	.
!	!	!LO:HP:b:t=dimin	!	!
.	4r	>	16ggg\LL	.
.	.	.	16fff\	.
.	.	.	16ggg\	.
.	.	.	16aaa-\JJ	.
2BBn 2BBBn/	8r	.	16ggg\LL	.
.	.	.	16fff\	.
.	16r	.	16aaa-\	.
.	16g 16e- 16G/	.	16ggg\JJ	.
.	8.fL 8.d 8.G/	.	16fff\LL	.
.	.	.	16ggg\	.
.	.	.	16fff\	.
.	16a-Jk 16f 16G/	.	16ddd\JJ	.
=41	=41	=41	=41	=41
2C 2CC/	4g 4e- 4G/	.	16eee-\LL	.
.	.	.	16ddd\	.
.	.	.	16fff\	.
.	.	.	16eee-\JJ	.
.	4r	.	16ddd\LL	.
.	.	.	16fff\	.
.	.	.	16eee-\	.
.	.	.	16ddd\JJ	.
2AA- 2AAA-/	8r	.	16ccc\LL	.
.	.	.	16bbn\	.
.	16r	.	16ddd\	.
*	*clefF4	*	*	*
.	16c 16A- 16E-\	p	16ccc\JJ	.
.	8.BnL 8.A- 8.E-\	.	16bb\LL	.
.	.	.	16ddd\	.
.	.	.	16ccc\	.
.	16cJk 16A- 16E-\	.	16aa-\JJ	.
=42	=42	=42	=42	=42
2FF#X 2FFF#X/	4d 4An 4D\	.	16ccc\LL	.
.	.	.	16ddd\	.
.	.	.	16ccc\	.
.	.	.	16bb-X\JJ	.
.	4r	.	16aan\LL	.
.	.	.	16gg\	.
.	.	.	16ff#X\	.
.	.	.	16ee-\JJ	.
2GG 2GGG/	8r	.	16dd\LL	.
.	.	.	16cc\	.
.	16r	.	16bn\	.
.	16Bn 16A 16Fn\	>	16a-X\JJ	.
.	8.cL 8.G 8.E-\	.	16g/LL	.
.	.	.	16fn/	.
.	.	.	16e-/	.
.	16BJk 16G 16F 16D\	]	16d/JJ	.
!!LO:LB:g=original
=43	=43	=43	=43	=43
8CC/	8c 8G 8E-\	.	16c/LL	.
.	.	.	16G/	.
8r	8r	.	16Bn/	.
.	.	.	16A-/JJ	.
!	!	!	!	!LO:HP:b:t=crescendo
4r	4r	.	16G/LL	<
.	.	.	16B/	.
.	.	.	16A-/	.
.	.	.	16G/JJ	.
2r	2r	.	16A-/LL	.
.	.	.	16B/	.
.	.	.	16c/	.
.	.	.	16d/JJ	.
.	.	.	16e-/LL	.
.	.	.	16B/	.
.	.	.	16d/	.
.	.	.	16c/JJ	.
=44	=44	=44	=44	=44
1r	1r	.	16Bn/LL	.
.	.	.	16d/	.
.	.	.	16c/	.
.	.	.	16B/JJ	.
.	.	.	16c/LL	.
.	.	.	16d/	.
.	.	.	16e-/	.
.	.	.	16f/JJ	.
.	.	.	16a-/LL	.
.	.	.	16e-/	.
.	.	.	16f#X/	.
.	.	.	16e-/JJ	.
.	.	.	16d/LL	.
.	.	.	16f#/	.
.	.	.	16e-/	.
.	.	.	16d/JJ	.
=45	=45	=45	=45	=45
!	!LO:TX:t=P:problem:brak zmiany klucza na końcu systemu	!	!	!
1r	1r	.	16e-/LL	mf
.	.	.	16f#X/	.
.	.	.	16g/	.
.	.	.	16bn/JJ	.
.	.	.	16cc/LL	.
.	.	.	16g/	.
!	!	!	!	!LO:HP:b:t=crescendo
.	.	.	16b/	<
.	.	.	16a-/JJ	.
.	.	.	16g/LL	.
.	.	.	16b/	.
.	.	.	16a-/	.
.	.	.	16g/JJ	.
.	.	.	16a-\LL	.
.	.	.	16b\	.
.	.	.	16cc\	.
.	.	.	16dd\JJ	.
*	*clefG2	*	*	*
!!LO:LB:g=original
=46	=46	=46	=46	=46
1r	16ee-\LL	f	1r	.
.	16bn\	.	.	.
.	16cc\	.	.	.
.	16dd\JJ	.	.	.
.	16ee-\LL	.	.	.
.	16ff#X\	.	.	.
.	16gg\	.	.	.
.	16aa-\JJ	.	.	.
.	16bb-X\LL	.	.	.
.	16aa-\	.	.	.
.	16gg\	.	.	.
.	16ff#\JJ	.	.	.
.	16ee-\LL	.	.	.
.	16dd\	.	.	.
.	16cc\	.	.	.
.	16dd\JJ	.	.	.
=47	=47	=47	=47	=47
1r	16ee-\LL	.	1r	.
.	16bn\	.	.	.
.	16cc\	.	.	.
.	16dd\JJ	.	.	.
.	16ee-\LL	.	.	.
.	16ff#X\	.	.	.
.	16gg\	.	.	.
.	16aa-\JJ	.	.	.
.	16bb-X\LL	.	.	.
.	16aa-\	.	.	.
.	16gg\	.	.	.
.	16ff#\JJ	.	.	.
.	16ee-\LL	.	.	.
.	16dd\	.	.	.
.	16cc\	.	.	.
.	16dd\JJ	.	.	.
=48	=48	=48	=48	=48
1r	16ee-\LL	.	1r	.
.	16bn\	.	.	.
.	16cc\	.	.	.
.	16dd\JJ	.	.	.
.	16ee-\LL	.	.	.
.	16dd\	.	.	.
.	16ee-\	.	.	.
.	16ff#X\JJ	.	.	.
.	16gg\LL	.	.	.
.	16ff#\	.	.	.
.	16gg\	.	.	.
.	16bbn\JJ	.	.	.
.	16ccc\LL	.	.	.
.	16gg\	.	.	.
.	16aa-\	.	.	.
.	16bb\JJ	.	.	.
!!LO:LB:g=original
=49	=49	=49	=49	=49
4r	16ccc\LL	.	1r	.
.	16gg\	.	.	.
.	16aa-\	.	.	.
.	16bbn\JJ	.	.	.
*clefG2	*	*	*	*
16cc/LL	16ccc\LL	<	.	.
16g/	16gg\	.	.	.
16a-/	16aa-\	.	.	.
16bn/JJ	16bb\JJ	.	.	.
16c/LL	16ccc\LL	.	.	.
16G/	16gg\	.	.	.
16A-/	16aa-\	.	.	.
16Bn/JJ	16bb\JJ	[	.	.
*clefF4	*	*	*	*
16C/LL	16ccc\LL	.	.	.
16GG/	16gg\	.	.	.
16AA-/	16aa-\	.	.	.
16BBn/JJ	16bb\JJ	.	.	.
=50	=50	=50	=50	=50
16C/LL	16ccc\LL	ff	1r	.
16GG/	16gg\	.	.	.
16AA-/	16aa-\	.	.	.
16BBn/JJ	16bbn\JJ	.	.	.
16C/LL	16ccc\LL	.	.	.
16GG/	16gg\	.	.	.
16AA-/	16aa-\	.	.	.
16BB/JJ	16bb\JJ	.	.	.
16C/LL	16ccc\LL	.	.	.
16GG/	16gg\	.	.	.
16AA-/	16aa-\	.	.	.
16BB/JJ	16bb\JJ	.	.	.
16C/LL	16ccc\LL	.	.	.
16GG/	16gg\	.	.	.
16AA-/	16aa-\	.	.	.
16BB/JJ	16bb\JJ	.	.	.
=51	=51	=51	=51	=51
4C/	4ccc\	.	1r	.
4r	4r	.	.	.
4C 4GG 4EE- 4CC/	4ccc 4gg 4ee- 4cc\	.	.	.
4r	4r	.	.	.
=52	=52	=52	=52	=52
4C 4GG 4EE- 4CC/	4ccc 4gg 4ee- 4cc\	.	1r	.
4r;	4r;	.	.	.
4r	4r	.	.	.
8.r	8.r	.	.	.
16c\	16cc\	.	.	.
==	==	==	==	==
*-	*-	*-	*-	*-
!!!system-decoration: s1{(s2,s3)}
!!!ENC: Mateusz Solarz
!!!END: 2022-09-29
!!!ENC: Katarzyna Serwa
!!!END: 2022-10-24
!!!YEC: Copyright 2022 Narodowy Instytut Fryderyka Chopina (https://polishscores.org)
!!!YEM: License CC-BY-4.0 (https://creativecommons.org/licenses/by/4.0)
